assets/icons/camera/web-filled.svg

<?xml version="1.0" encoding="UTF-8" standalone="no"?>
<svg
   viewBox="0 0 24 24"
   height="24"
   width="24"
   version="1.1"
   id="svg4"
   sodipodi:docname="web-filled.svg"
   inkscape:version="1.2 (1:1.2.1+202207142221+cd75a1ee6d)"
   xmlns:inkscape="http://www.inkscape.org/namespaces/inkscape"
   xmlns:sodipodi="http://sodipodi.sourceforge.net/DTD/sodipodi-0.dtd"
   xmlns="http://www.w3.org/2000/svg"
   xmlns:svg="http://www.w3.org/2000/svg">
  <defs
     id="defs8" />
  <sodipodi:namedview
     id="namedview6"
     pagecolor="#ffffff"
     bordercolor="#666666"
     borderopacity="1.0"
     inkscape:pageshadow="2"
     inkscape:pageopacity="0.0"
     inkscape:pagecheckerboard="0"
     showgrid="false"
     inkscape:zoom="22.627417"
     inkscape:cx="4.6845824"
     inkscape:cy="7.5572037"
     inkscape:window-width="1920"
     inkscape:window-height="1043"
     inkscape:window-x="0"
     inkscape:window-y="0"
     inkscape:window-maximized="1"
     inkscape:current-layer="svg4"
     inkscape:snap-bbox="true"
     inkscape:bbox-paths="true"
     inkscape:bbox-nodes="true"
     inkscape:snap-bbox-edge-midpoints="true"
     inkscape:snap-bbox-midpoints="true"
     inkscape:object-paths="true"
     inkscape:snap-intersection-paths="true"
     inkscape:snap-smooth-nodes="true"
     inkscape:snap-midpoints="true"
     inkscape:showpageshadow="2"
     inkscape:deskcolor="#d1d1d1">
    <inkscape:grid
       type="xygrid"
       id="grid845" />
    <inkscape:grid
       type="xygrid"
       id="grid1396"
       dotted="true"
       spacingx="0.5"
       spacingy="0.5"
       empspacing="10" />
  </sodipodi:namedview>
  <path
     id="path562"
     style="opacity:1;fill:#808080;fill-rule:evenodd;stroke:none;stroke-width:2;stroke-linejoin:round"
     d="M 12 3 A 8 8 0 0 0 4 11 A 8 8 0 0 0 10 18.730469 L 10 20 L 14 20 L 14 18.730469 A 8 8 0 0 0 20 11 A 8 8 0 0 0 12 3 z M 12 6 C 14.761415 6 17 8.2385847 17 11 C 17 13.761415 14.761415 16 12 16 C 9.2385847 16 7 13.761415 7 11 C 7 8.2385847 9.2385847 6 12 6 z M 12 7 C 9.7908676 7 8 8.7908676 8 11 C 8 13.209133 9.7908676 15 12 15 C 14.209133 15 16 13.209133 16 11 C 16 8.7908676 14.209133 7 12 7 z M 12.048828 8.0019531 C 13.685817 8.0286001 14.999151 9.3627935 15 11 C 15 12.656848 13.656848 14 12 14 C 10.343152 14 9 12.656848 9 11 C 9.0032949 9.4024866 10.257903 8.0877653 11.853516 8.0097656 C 11.362771 8.0824355 10.999493 8.5039056 11 9 C 11 9.5522829 11.447718 10 12 10 C 12.552282 10 13 9.5522829 13 9 C 12.999595 8.4669918 12.581202 8.0279791 12.048828 8.0019531 z " />
  <path
     style="fill:#808080;fill-opacity:1;fill-rule:evenodd;stroke-width:0.5;stroke-linecap:square"
     d="m 3.000002,21 v 1 h 18.5 v -1 z"
     id="path891" />
</svg>

<svg height="24" width="24" xmlns="http://www.w3.org/2000/svg"><path style="opacity:1;fill:gray;stroke:none;stroke-width:2;stroke-linejoin:round" d="M12 3a8 8 0 0 0-8 8 8 8 0 0 0 6 7.73V20h4v-1.27A8 8 0 0 0 20 11a8 8 0 0 0-8-8zm0 3a5 5 0 1 1 0 10 5 5 0 0 1 0-10zm0 1a4 4 0 1 0 0 8 4 4 0 0 0 0-8zm.049 1.002A3 3 0 1 1 9 11a3 3 0 0 1 2.854-2.99 1 1 0 1 0 .195-.008z"/><path style="fill:gray;fill-opacity:1;stroke-width:.5;stroke-linecap:square" d="M3 21v1h18.5v-1z"/></svg>
